!!!OTL: Qixin lai kangzhan
!!!ARE: Asia, China,ÿLiaoning lingyuan
!! III, 220, 2)
!!!SCT: C1732
!!!YEM: Copyright 1995, estate of Helmut Schaffrath.
**kern
*ICvox
*Ivox
*M2/4
*k[f#]
*G:
{8a
8a
8dd
8b
=1
2a}
=2
{8a
8a
8b
8g
=3
2a}
=4
{8g
4g
16a
16a
=5
8b
8a
4g
=6
8a
8a
8dd
8b
=7
2a}
=8
{8g
8b
4a
=9
8g
8b
4a
=10
8g
8b
8a
8e
=11
2g}
=12
{8a
8a
8b
8g
=13
2a}
=14
{8a
8a
8b
8g
=15
2a}
=16
{8g
4b
8b
=17
8a
8g
8a
8d
=18
8e
8d
8e
8g
=19
2d}
==
!!!AGN: Xiaodiao, Babaicai diao
!!!AMT: simple duple
!!!AIN: vox
!!!EED: Helmut Schaffrath
!!!EEV: 1.0
*-
